src/logo.svg

<svg version="1.1" id="Layer_1" xmlns="http://www.w3.org/2000/svg" xmlns:xlink="http://www.w3.org/1999/xlink" x="0px" y="0px"
	 viewBox="0 0 193 237" style="enable-background:new 0 0 193 237;" xml:space="preserve">
<style type="text/css">
	.st0{fill:#0D61FF;}
	.st1{fill:#FFFFFF;}
	.st2{fill:#262D33;}
</style>
<path class="st1" d="M175.8,171.2c-2.3-40.7-53.5-59.2-58.4-61.1c-0.2-0.1-0.2-0.3-0.1-0.5l52.8-53v-5.7c0-0.9-0.8-1.7-1.7-1.7H71.1
	V17.3l0,0V7.7l-35.9,7.5v5.4h2c0,0,8.8,0,8.8,8.8v19.7H18.2c-0.5,0-1,0.5-1,1v12.5h28.9c0,0,0,13.3,0,28.8v39.1
	c0,21.3,13.7,36.1,37.7,34.1c5.1-0.4,9.8-2.4,13.8-5c1.8-1.2,2.9-3.1,2.9-5.3v-6.7c-7.8,5.2-14.4,4.9-14.4,4.9
	c-15.2,0-14.9-19.3-14.9-19.3V62.6h70l-50.4,50.8c-0.1,6.7-0.2,11.9-0.2,12c0,0.2,0.1,0.3,0.3,0.3c46.2,7.8,58.7,37.7,58.7,46.4
	c0,0,5,42.3-37.3,45.2c0,0-27.7,1.2-32.6-9.9c-0.2-0.4,0-0.8,0.4-1c4.6-2.1,7.7-6.2,7.7-11.7c0-8.2-5-14.9-15.5-14.9
	c-8.5,0-15.5,6.7-15.5,14.9c0,0-4,35.6,55.4,34.6C180,228.1,175.8,171.2,175.8,171.2z"/>
</svg>

<svg width="100%" height="100%" viewBox="0 0 1920 450" version="1.1" xmlns="http://www.w3.org/2000/svg" xmlnsXlink="http://www.w3.org/1999/xlink" xmlSpace="preserve" xmlnsSerif="http://www.serif.com/" style="fill-rule:evenodd;clip-rule:evenodd;stroke-linejoin:round;stroke-miterlimit:2;">
    <rect x="0" y="0" width="1920" height="450" style="fill:rgb(29,34,39);"/>
    <g transform="matrix(7.5926,0,0,7.5926,-9162.72,-1318.72)">
        <text x="1409.84px" y="204.149px" style="font-family:'Helvetica';font-size:12px;fill:white;stroke:white;stroke-width:0.13px;">Explore</text>
        <text x="1409.84px" y="216.149px" style="font-family:'Helvetica';font-size:12px;fill:white;stroke:white;stroke-width:0.13px;">Tezos</text>
    </g>
    <g transform="matrix(1.25905,0,0,1.25905,1402.73,209.73)">
        <g transform="matrix(1,0,0,1,-96.5,-118.5)">
            <path d="M175.8,171.2C173.5,130.5 122.3,112 117.4,110.1C117.2,110 117.2,109.8 117.3,109.6L170.1,56.6L170.1,50.9C170.1,50 169.3,49.2 168.4,49.2L71.1,49.2L71.1,7.7L35.2,15.2L35.2,20.6L37.2,20.6C37.2,20.6 46,20.6 46,29.4L46,49.1L18.2,49.1C17.7,49.1 17.2,49.6 17.2,50.1L17.2,62.6L46.1,62.6L46.1,130.5C46.1,151.8 59.8,166.6 83.8,164.6C88.9,164.2 93.6,162.2 97.6,159.6C99.4,158.4 100.5,156.5 100.5,154.3L100.5,147.6C92.7,152.8 86.1,152.5 86.1,152.5C70.9,152.5 71.2,133.2 71.2,133.2L71.2,62.6L141.2,62.6L90.8,113.4C90.7,120.1 90.6,125.3 90.6,125.4C90.6,125.6 90.7,125.7 90.9,125.7C137.1,133.5 149.6,163.4 149.6,172.1C149.6,172.1 154.6,214.4 112.3,217.3C112.3,217.3 84.6,218.5 79.7,207.4C79.5,207 79.7,206.6 80.1,206.4C84.7,204.3 87.8,200.2 87.8,194.7C87.8,186.5 82.8,179.8 72.3,179.8C63.8,179.8 56.8,186.5 56.8,194.7C56.8,194.7 52.8,230.3 112.2,229.3C180,228.1 175.8,171.2 175.8,171.2Z" style="fill:white;fill-rule:nonzero;"/>
        </g>
    </g>
</svg>
